sharp/svg/keyboard.svg

<svg xmlns="http://www.w3.org/2000/svg" width="24" height="24"><path fill="none" d="M0 0h24v24H0V0zm0 0h24v24H0V0z"/><g fill="currentColor"><path d="M22 5H2.01L2 19h20V5zM11 8h2v2h-2V8zm0 3h2v2h-2v-2zM8 8h2v2H8V8zm0 3h2v2H8v-2zm-1 2H5v-2h2v2zm0-3H5V8h2v2zm9 7H8v-2h8v2zm0-4h-2v-2h2v2zm0-3h-2V8h2v2zm3 3h-2v-2h2v2zm0-3h-2V8h2v2z"/></g></svg>

<?xml version="1.0" encoding="utf-8"?>
<!-- Generator: Adobe Illustrator 19.1.0, SVG Export Plug-In . SVG Version: 6.00 Build 0)  -->
<svg version="1.1" xmlns="http://www.w3.org/2000/svg" xmlns:xlink="http://www.w3.org/1999/xlink" x="0px" y="0px" width="24px"
	 height="24px" viewBox="0 0 24 24" enable-background="new 0 0 24 24" xml:space="preserve">
<g id="Bounding_Boxes">
	<g id="ui_x5F_spec_x5F_header_copy_3">
	</g>
	<path fill="none" d="M0,0h24v24H0V0z M0,0h24v24H0V0z"/>
</g>
<g id="Sharp" fill="currentColor">
	<g id="ui_x5F_spec_x5F_header_copy_4">
	</g>
	<path d="M22,5H2.01L2,19h20V5z M11,8h2v2h-2V8z M11,11h2v2h-2V11z M8,8h2v2H8V8z M8,11h2v2H8V11z M7,13H5v-2h2V13z M7,10H5V8h2V10z
		 M16,17H8v-2h8V17z M16,13h-2v-2h2V13z M16,10h-2V8h2V10z M19,13h-2v-2h2V13z M19,10h-2V8h2V10z"/>
</g>
</svg>
